X:873
T:Beväringsmarsch
T:efter Pelle Fors
R:Marsch
Z:Björn Ek 2008-12-31
O:Vikbolandet, Östergötland
S:efter Pelle Fors
B:Låtar efter Pelle Fors
M:2/4
L:1/8
K:G
%
D|:G((3A/G/F/) GA|B((3c/B/A/) GB|d((3e/d/^c/) de|d2 A2 |
B2 A2           |G2 F2         |EA/A/ AA       |1D3 D:|2D3 B||
%
|:dB cA|BG/G/ GG|G>G AA|d3 B  |
G2A2   |Bd c2   |BG AF |1G3 B:|2G3||
%
(:musicend:)

(:music:)
